**kern
*staff1
*tb16
=1-
*clefG1
*k[b-e-]
*M6/8
8a/
.
16gn/LL
16a/JJ
16b-/LL
16a/JJ
8r
.
8r
.
8r
.
=2
4dd\
.
.
.
8a/
.
8a/L
.
16gn/
16a/JJ
16b-/LL
16a/JJ
=3
4.ff\
.
.
.
.
.
8a/
.
16gn/LL
16a/JJ
16b-/LL
16a/JJ
=4
!!linebreak:original
*clefG2
8ff\L
.
8ee-\J
.
8dd\
.
8cc\L
.
8b-\J
.
8a/
.
=5
4.a-/
.
.
.
.
.
8a-/
.
16g/LL
16a-/JJ
16b-/LL
16a-/JJ
=6
4g/
.
.
.
8ee-\
.
8ff\L
.
8ee-\J
.
8cc\
.
=7
4a/
.
.
.
8ff\
.
4ff\
.
.
.
8r
.
=8
!!linebreak:original
4r
.
.
.
8f/
.
4f/
.
.
.
8r
.
=9
4r
.
.
.
8f/
.
8f/L
.
16en/
16f/JJ
16g/LL
16f/JJ
=10
8b-\
.
16an/LL
16b-/JJ
16cc\LL
16b-\JJ
8ee-\L
.
8cc'\J
.
8b-\
.
=11
!!linebreak:original
8a/
.
8a/
.
8a/
.
8a/
.
8g/
.
8f/
.
=12
8b-/L
.
8a/J
.
8g/
.
8cc\L
.
8b-\J
.
8a/
.
=13
4dd\
.
.
.
8dd\
.
8dd\
.
8cc\
.
8b-\
.
=14
!!linebreak:original
8ee-\L
.
8dd\J
.
8cc\
.
8ff\L
.
8ee-\J
.
8dd\
.
=15
4gg\
.
.
.
8g/
.
8g/
.
16an/
16bn/
16cc\LL
16dd\JJ
=16
(16ee-\LL
16dd\
16cc\
16bn\
16cc\
16dd\JJ
16ee-\LL
16gg\
16ff#\)
16gg\JJ
16ee-\LL
16cc\JJ
=17
!!linebreak:original
(4.ff\
.
.
.
.
.
8f/L
.
8g/J)
.
8a/
.
=18
4b-\
.
.
.
8ff\
.
4ff\
.
.
.
8r
.
=19
4r
.
.
.
8f/
.
4f/
.
.
.
8r
.
=20
4.r
.
.
.
.
.
4.r
.
.
.
.
.
=21
4.r
.
.
.
.
.
8r
.
4r
.
.
.
=22:|!
8ff\
.
16ee-\LL
16dd\JJ
16cc\LL
16b-\JJ
8r
.
4r
.
.
.
=23
!!linebreak:original
8b-\
.
8a/
.
8a/
.
8ee-\L
.
8cc\J
.
8a/
.
=24
(8b-\
.
8a/)
.
8b-\
.
8b-/L
.
16a/
16b-/JJ
16cc\LL
16b-\JJ
=25
8a-/L
.
8g/J
.
8g/
.
8g/L
.
8a-/J
.
8f/
.
=26
4e-/
.
.
.
8g/
.
8cc\L
.
16bn\
16cc\JJ
16dd\LL
16cc\JJ
=27
!!linebreak:original
8ee-\L
.
8cc\J
.
8a/
.
8ee-\L
.
8cc\J
.
8b-\
.
=28
4a/
.
.
.
8ff\
.
4ff\
.
.
.
8r
.
=29
4r
.
.
.
8f/
.
4f/
.
.
.
8r
.
=30
4.r
.
.
.
.
.
8ee-\
.
16dd\LL
16cc\JJ
16b-/LL
16a/JJ
=31
!!linebreak:original
8b-\
.
8f/
.
8f/
.
16f/LL
16en/
16f/
16f#/JJ
16g/LL
16e-/JJ
=32
8d/
.
8f/
.
8f/
.
4.b-\
.
.
.
.
.
=33
8r
.
8g/
.
8g/
.
[4.ee-\
.
.
.
.
.
=34
8ee-\L]
.
8cc\
.
8b-\J
.
8a/
.
8g/
.
8f/
.
=35
!!linebreak:original
8b-\
.
8a/
.
8g/
.
8cc\L
.
8b-\J
.
8a/
.
=36
4.dd\
.
.
.
.
.
8dd\
.
8cc\
.
8b-\
.
=37
8ee-\
.
8dd\
.
8cc\
.
8ff\L
.
8ee-\J
.
8dd\
.
=38
!!linebreak:original
4gg\
.
.
.
8r
.
8g/
.
16an/LL
16bn/JJ
16cc\LL
16dd\JJ
=39
(16ee-\LL
16dd\
16cc\
16bn\
16cc\
16dd\JJ
16ee-\LL
16gg\
16ff#\
16gg\JJ)
16ee-\
16cc\
=40
(4.ff\
.
.
.
.
.
8f/L
.
8g/J)
.
8a/
.
=41
!!linebreak:original
4b-\
.
.
.
8ff\
.
4ff\
.
.
.
8r
.
=42
4r
.
.
.
(8f/
.
4f/)
.
.
.
8r
.
=43
4.r
.
.
.
.
.
4.r
.
.
.
.
.
=44
4.r
.
.
.
.
.
==
*-
